symbols/be/PVR-{80}.svg

<?xml version="1.0" encoding="UTF-8" standalone="no"?>
<!-- Initially created with Inkscape, optimized by hand -->

<svg
   version="1.1"
   width="20"
   height="17.320999"
   id="svg1"
   xmlns="http://www.w3.org/2000/svg"
   xmlns:svg="http://www.w3.org/2000/svg">
  <defs
     id="defs1" />
  <path
     id="Fond"
     d="M 20,17.320999 H 0 L 10,-1.2114258e-6 Z"
     fill="#0b9b7b"
     style="stroke-width:0.1" />
  <path
     style="font-size:10.6667px;font-family:Isonorm;-inkscape-font-specification:'Isonorm, Normal';fill:#ffffff;fill-rule:evenodd;stroke-width:0.377953;stroke-linejoin:bevel"
     d="m 8.618659,11.226476 c 0.064,0.117334 0.149334,0.202668 0.234668,0.288001 -0.170667,0.138668 -0.266668,0.234668 -0.384001,0.426668 -0.149334,0.245335 -0.245335,0.416002 -0.245335,0.704003 v 1.429337 c 0,0.885337 0.885337,1.418672 1.781339,1.418672 0.88534,0 1.77067,-0.533335 1.77067,-1.418672 v -1.429337 c 0,-0.277335 -0.0213,-0.458668 -0.17066,-0.704003 -0.128,-0.202667 -0.25601,-0.320001 -0.45867,-0.426668 0.10666,-0.096 0.16,-0.170667 0.24533,-0.288001 0.14934,-0.245334 0.21334,-0.416001 0.21334,-0.714668 V 9.8078048 c 0,-0.832002 -0.76801,-1.429337 -1.60001,-1.429337 -0.832002,0 -1.600005,0.597335 -1.600005,1.429337 v 0.7040032 c 0,0.298667 0.064,0.469334 0.213334,0.714668 z m 2.272011,-0.714668 c 0,0.448001 -0.448,0.714668 -0.88534,0.714668 -0.448001,0 -0.896002,-0.266667 -0.896002,-0.714668 V 9.8078048 c 0,-0.448001 0.448001,-0.714669 0.896002,-0.714669 0.43734,0 0.88534,0.266668 0.88534,0.714669 z m 0.18133,3.562677 c 0,0.490669 -0.56533,0.704003 -1.056,0.704003 -0.501338,0.01067 -1.07734,-0.202668 -1.07734,-0.704003 v -1.429337 c 0,-0.501335 0.554669,-0.725336 1.06667,-0.725336 0.50134,0 1.06667,0.224001 1.06667,0.725336 z"
     id="text1"
     aria-label="8" />
</svg>

<?xml version="1.0" encoding="UTF-8"?>
<svg xmlns="http://www.w3.org/2000/svg" xmlns:xlink="http://www.w3.org/1999/xlink" width="20" height="17.320999" viewBox="0 0 20 17.320999">
<path fill-rule="nonzero" fill="rgb(4.313725%, 60.784314%, 48.235294%)" fill-opacity="1" d="M 20 17.320312 L 0 17.320312 L 10 0 Z M 20 17.320312 "/>
<path fill-rule="evenodd" fill="rgb(100%, 100%, 100%)" fill-opacity="1" d="M 8.617188 11.226562 C 8.683594 11.34375 8.769531 11.429688 8.851562 11.515625 C 8.683594 11.652344 8.585938 11.75 8.46875 11.941406 C 8.320312 12.1875 8.222656 12.355469 8.222656 12.644531 L 8.222656 14.074219 C 8.222656 14.960938 9.109375 15.492188 10.003906 15.492188 C 10.890625 15.492188 11.777344 14.960938 11.777344 14.074219 L 11.777344 12.644531 C 11.777344 12.367188 11.753906 12.1875 11.605469 11.941406 C 11.476562 11.738281 11.347656 11.621094 11.148438 11.515625 C 11.253906 11.417969 11.308594 11.34375 11.390625 11.226562 C 11.542969 10.980469 11.605469 10.808594 11.605469 10.511719 L 11.605469 9.808594 C 11.605469 8.976562 10.835938 8.378906 10.003906 8.378906 C 9.171875 8.378906 8.40625 8.976562 8.40625 9.808594 L 8.40625 10.511719 C 8.40625 10.808594 8.46875 10.980469 8.617188 11.226562 Z M 10.890625 10.511719 C 10.890625 10.960938 10.441406 11.226562 10.003906 11.226562 C 9.558594 11.226562 9.109375 10.960938 9.109375 10.511719 L 9.109375 9.808594 C 9.109375 9.359375 9.558594 9.09375 10.003906 9.09375 C 10.441406 9.09375 10.890625 9.359375 10.890625 9.808594 Z M 11.070312 14.074219 C 11.070312 14.566406 10.507812 14.777344 10.015625 14.777344 C 9.515625 14.789062 8.9375 14.574219 8.9375 14.074219 L 8.9375 12.644531 C 8.9375 12.144531 9.492188 11.917969 10.003906 11.917969 C 10.507812 11.917969 11.070312 12.144531 11.070312 12.644531 Z M 11.070312 14.074219 "/>
</svg>
